X: 1
T: The Rookery
R: reel
M: 4/4
L: 1/8
K: Gmaj
|:BGAG EGDG|EGDG EGDE|G2 Bd e2 dg|e2 dg edBA|
G2 GA B2 Bd|e2 ed efga|bgag egge|dBAc BG G2:|
|:b2 gb a2 ga|b2 gb aged|G2 Bd e2 dg|e2 dg edBA|
G2 GA B2 Bd|e2 ed efga|bgag egge|d2 Ac BG G2:|

composer: Richard Dwyer
